;FLAVOR:Marlin
;TIME:15767
;Filament used: 6.6238m
;Layer height: 0.2
;MINX:27.147
;MINY:38.887
;MINZ:0.2
;MAXX:182.853
;MAXY:171.113
;MAXZ:1.475
;Generated with Cura_SteamEngine master
M140 S60
M105
M190 S60
M104 S210
M105
M109 S210
M82 ;absolute extrusion mode
G21 ;metric values
G90 ;absolute positioning
M82 ;set extruder to absolute mode
M107 ;start with the fan off
G28 X0 Y0 ;move X/Y to min endstops
G28 Z0 ;move Z to min endstops
G1 Z15.0 F100 ;move the platform down 15mm
G92 E0 ;zero the extruded length
G1 F200 E3 ;extrude 3mm of feed stock
G92 E0 ;zero the extruded length again
G1 F100
G0 Y20 F100
M117 Printing...
G5
G92 E0
G92 E0
G1 F2400 E-6
;LAYER_COUNT:8
;LAYER:0
M107
M204 S3000
M205 X10 Y10
G1 F600 Z0.275
G0 F3000 X29.618 Y40.251 Z0.275
M204 S1800
M205 X8 Y8
;TYPE:SKIRT
G1 F600 Z0.2
G1 F2400 E0
G1 X30.206 Y39.843 E0.03333
G1 X30.835 Y39.503 E0.06662
G1 X31.499 Y39.236 E0.09994
G1 X32.188 Y39.044 E0.13325
G1 X32.894 Y38.93 E0.16655
G1 X33.698 Y38.89 E0.20403
G1 X33.877 Y38.887 E0.21237
G1 X175.746 Y38.887 E6.81838
G1 X176.536 Y38.898 E6.85517
G1 X177.249 Y38.948 E6.88846
G1 X177.953 Y39.077 E6.92178
G1 X178.637 Y39.285 E6.95507
G1 X179.294 Y39.567 E6.98836
G1 X179.916 Y39.921 E7.02169
G1 X180.494 Y40.342 E7.05499
G1 X181.022 Y40.825 E7.08831
G1 X181.492 Y41.363 E7.12157
G1 X181.9 Y41.951 E7.1549
G1 X182.239 Y42.581 E7.18821
G1 X182.506 Y43.244 E7.22149
G1 X182.697 Y43.934 E7.25483
G1 X182.81 Y44.64 E7.28812
G1 X182.85 Y45.437 E7.32528
G1 X182.853 Y45.617 E7.33366
G1 X182.853 Y164.056 E12.84868
G1 X182.844 Y164.783 E12.88253
G1 X182.795 Y165.497 E12.91586
G1 X182.667 Y166.201 E12.94918
G1 X182.461 Y166.886 E12.98248
G1 X182.18 Y167.543 E13.01576
G1 X181.827 Y168.166 E13.0491
G1 X181.407 Y168.745 E13.08241
G1 X180.925 Y169.273 E13.1157
G1 X180.388 Y169.745 E13.14899
G1 X179.8 Y170.153 E13.18231
G1 X179.171 Y170.494 E13.21563
G1 X178.508 Y170.762 E13.24893
G1 X177.819 Y170.954 E13.28223
G1 X177.113 Y171.069 E13.31554
G1 X176.302 Y171.11 E13.35335
G1 X176.123 Y171.113 E13.36169
G1 X34.171 Y171.112 E19.97157
G1 X33.473 Y171.103 E20.00407
G1 X32.76 Y171.054 E20.03735
G1 X32.056 Y170.926 E20.07067
G1 X31.371 Y170.72 E20.10398
G1 X30.714 Y170.438 E20.13727
G1 X30.092 Y170.085 E20.17057
G1 X29.513 Y169.665 E20.20388
G1 X28.984 Y169.183 E20.2372
G1 X28.513 Y168.645 E20.2705
G1 X28.105 Y168.058 E20.30379
G1 X27.765 Y167.428 E20.33712
G1 X27.497 Y166.765 E20.37042
G1 X27.305 Y166.076 E20.40372
G1 X27.191 Y165.37 E20.43702
G1 X27.149 Y164.544 E20.47554
G1 X27.147 Y164.371 E20.48359
G1 X27.148 Y45.874 E26.00131
G1 X27.157 Y45.209 E26.03228
G1 X27.206 Y44.496 E26.06556
G1 X27.335 Y43.792 E26.09888
G1 X27.542 Y43.108 E26.13216
G1 X27.824 Y42.45 E26.16549
G1 X28.177 Y41.828 E26.1988
G1 X28.597 Y41.25 E26.23206
G1 X29.08 Y40.722 E26.26539
G1 X29.618 Y40.251 E26.29868
M204 S3000
M205 X10 Y10
G0 F3000 X30.159 Y40.546
M204 S1800
M205 X8 Y8
G1 F2400 X30.737 Y40.181 E26.33051
G1 X31.354 Y39.887 E26.36234
G1 X32 Y39.667 E26.39411
G1 X32.668 Y39.524 E26.42592
G1 X33.392 Y39.458 E26.45978
G1 X33.877 Y39.447 E26.48237
G1 X175.746 Y39.447 E33.08838
G1 X176.528 Y39.458 E33.1248
G1 X177.209 Y39.507 E33.15659
G1 X177.88 Y39.636 E33.18841
G1 X178.531 Y39.843 E33.22022
G1 X179.154 Y40.124 E33.25204
G1 X179.74 Y40.476 E33.28387
G1 X180.28 Y40.894 E33.31567
G1 X180.768 Y41.372 E33.34748
G1 X181.197 Y41.904 E33.3793
G1 X181.561 Y42.482 E33.41111
G1 X181.855 Y43.099 E33.44293
G1 X182.074 Y43.746 E33.47474
G1 X182.217 Y44.414 E33.50655
G1 X182.282 Y45.133 E33.54016
G1 X182.293 Y45.617 E33.5627
G1 X182.293 Y164.049 E39.07739
G1 X182.284 Y164.776 E39.11125
G1 X182.235 Y165.458 E39.14309
G1 X182.107 Y166.129 E39.1749
G1 X181.902 Y166.781 E39.20672
G1 X181.622 Y167.404 E39.23853
G1 X181.272 Y167.99 E39.27031
G1 X180.855 Y168.532 E39.30215
G1 X180.378 Y169.021 E39.33396
G1 X179.847 Y169.45 E39.36575
G1 X179.269 Y169.815 E39.39758
G1 X178.653 Y170.11 E39.42938
G1 X178.006 Y170.331 E39.46122
G1 X177.338 Y170.475 E39.49304
G1 X176.608 Y170.542 E39.52717
G1 X176.123 Y170.553 E39.54976
G1 X34.179 Y170.553 E46.15927
G1 X33.481 Y170.544 E46.19177
G1 X32.799 Y170.495 E46.22361
G1 X32.128 Y170.367 E46.25542
G1 X31.477 Y170.161 E46.28722
G1 X30.853 Y169.881 E46.31906
G1 X30.267 Y169.53 E46.35087
G1 X29.726 Y169.113 E46.38268
G1 X29.237 Y168.635 E46.41452
G1 X28.808 Y168.104 E46.4463
G1 X28.443 Y167.526 E46.47813
G1 X28.149 Y166.91 E46.50992
G1 X27.928 Y166.263 E46.54175
G1 X27.784 Y165.595 E46.57357
G1 X27.718 Y164.862 E46.60784
G1 X27.707 Y164.371 E46.63071
G1 X27.708 Y45.882 E52.14806
G1 X27.717 Y45.217 E52.17902
G1 X27.766 Y44.536 E52.21082
G1 X27.894 Y43.864 E52.24267
G1 X28.1 Y43.213 E52.27446
G1 X28.381 Y42.59 E52.30629
G1 X28.732 Y42.004 E52.3381
G1 X29.15 Y41.463 E52.36993
G1 X29.627 Y40.975 E52.40171
G1 X30.159 Y40.546 E52.43353
M204 S3000
M205 X10 Y10
G0 F3000 X30.173 Y41.242
M204 S1800
M205 X8 Y8
G1 F2400 X30.696 Y40.858 E52.46374
G1 X31.263 Y40.54 E52.49401
G1 X31.864 Y40.294 E52.52425
G1 X32.491 Y40.124 E52.5545
G1 X33.408 Y40.018 E52.59748
G1 X33.877 Y40.007 E52.61933
G1 X175.746 Y40.007 E59.22534
G1 X176.52 Y40.018 E59.26139
G1 X177.167 Y40.067 E59.2916
G1 X177.804 Y40.195 E59.32186
G1 X178.42 Y40.401 E59.3521
G1 X179.007 Y40.681 E59.38238
G1 X179.554 Y41.03 E59.4126
G1 X180.055 Y41.444 E59.44286
G1 X180.5 Y41.917 E59.4731
G1 X180.885 Y42.441 E59.50338
G1 X181.202 Y43.008 E59.53363
G1 X181.447 Y43.609 E59.56385
G1 X181.616 Y44.236 E59.59408
G1 X181.722 Y45.149 E59.63688
G1 X181.733 Y45.617 E59.65868
G1 X181.733 Y164.042 E65.17305
G1 X181.724 Y164.769 E65.2069
G1 X181.676 Y165.417 E65.23716
G1 X181.548 Y166.054 E65.26741
G1 X181.344 Y166.671 E65.29767
G1 X181.065 Y167.258 E65.32793
G1 X180.717 Y167.806 E65.35816
G1 X180.304 Y168.307 E65.38839
G1 X179.832 Y168.754 E65.41866
G1 X179.309 Y169.139 E65.4489
G1 X178.743 Y169.457 E65.47913
G1 X178.141 Y169.704 E65.50943
G1 X177.515 Y169.874 E65.53964
G1 X176.592 Y169.982 E65.58291
G1 X176.123 Y169.993 E65.60476
G1 X34.186 Y169.993 E72.21394
G1 X33.488 Y169.984 E72.24644
G1 X32.84 Y169.935 E72.2767
G1 X32.203 Y169.808 E72.30695
G1 X31.587 Y169.603 E72.33718
G1 X31 Y169.324 E72.36744
G1 X30.452 Y168.975 E72.39769
G1 X29.951 Y168.562 E72.42793
G1 X29.504 Y168.09 E72.4582
G1 X29.119 Y167.567 E72.48844
G1 X28.801 Y167 E72.51871
G1 X28.555 Y166.399 E72.54895
G1 X28.385 Y165.772 E72.5792
G1 X28.278 Y164.847 E72.62255
G1 X28.267 Y164.371 E72.64472
G1 X28.267 Y45.89 E78.1617
G1 X28.276 Y45.225 E78.19266
G1 X28.325 Y44.577 E78.22292
G1 X28.453 Y43.94 E78.25318
G1 X28.658 Y43.323 E78.28345
G1 X28.938 Y42.737 E78.31369
G1 X29.287 Y42.189 E78.34395
G1 X29.701 Y41.688 E78.37421
G1 X30.173 Y41.242 E78.40445
M204 S3000
M205 X10 Y10
G1 F2400 E72.40445
;MESH:Plate_Right.stl
G0 F3000 X34.401 Y44.622
G0 X34.401 Y46.141
G0 X39.997 Y62.681
G0 X58.515 Y65.464
M204 S1800
M205 X8 Y8
;TYPE:WALL-INNER
G1 F2400 E78.40445
G1 F1500 X58.515 Y82.263 E79.18668
G1 X75.315 Y82.263 E79.96896
G1 X75.315 Y65.464 E80.75119
G1 X58.515 Y65.464 E81.53347
M204 S3000
M205 X10 Y10
G0 F3000 X58.515 Y103.563
M204 S1800
M205 X8 Y8
G1 F1500 X58.515 Y120.362 E82.3157
G1 X75.315 Y120.362 E83.09798
G1 X75.315 Y103.563 E83.88021
G1 X58.515 Y103.563 E84.66249
M204 S3000
M205 X10 Y10
G0 F3000 X58.515 Y122.613
M204 S1800
M205 X8 Y8
G1 F1500 X58.515 Y139.413 E85.44477
G1 X75.315 Y139.413 E86.22705
G1 X75.315 Y122.613 E87.00932
G1 X58.515 Y122.613 E87.7916
M204 S3000
M205 X10 Y10
G0 F3000 X77.565 Y122.613
M204 S1800
M205 X8 Y8
G1 F1500 X77.565 Y139.413 E88.57388
G1 X94.365 Y139.413 E89.35616
G1 X94.365 Y122.613 E90.13844
G1 X77.565 Y122.613 E90.92072
M204 S3000
M205 X10 Y10
G0 F3000 X77.565 Y103.563
M204 S1800
M205 X8 Y8
G1 F1500 X77.565 Y120.362 E91.70295
G1 X94.365 Y120.362 E92.48523
G1 X94.365 Y103.563 E93.26746
G1 X77.565 Y103.563 E94.04974
M204 S3000
M205 X10 Y10
G0 F3000 X101.379 Y103.563
M204 S1800
M205 X8 Y8
G1 F1500 X101.379 Y120.362 E94.83197
G1 X118.177 Y120.362 E95.61415
G1 X118.177 Y103.563 E96.39639
G1 X101.379 Y103.563 E97.17857
M204 S3000
M205 X10 Y10
G0 F3000 X101.379 Y122.613
M204 S1800
M205 X8 Y8
G1 F1500 X101.379 Y139.413 E97.96085
G1 X118.177 Y139.413 E98.74303
G1 X118.177 Y122.613 E99.52531
G1 X101.379 Y122.613 E100.3075
M204 S3000
M205 X10 Y10
G0 F3000 X120.429 Y122.613
M204 S1800
M205 X8 Y8
G1 F1500 X120.429 Y139.413 E101.08978
G1 X137.227 Y139.413 E101.87196
G1 X137.227 Y122.613 E102.65424
G1 X120.429 Y122.613 E103.43642
M204 S3000
M205 X10 Y10
G0 F3000 X139.479 Y122.613
M204 S1800
M205 X8 Y8
G1 F1500 X139.479 Y139.413 E104.2187
G1 X156.277 Y139.413 E105.00089
G1 X156.277 Y122.613 E105.78317
G1 X139.479 Y122.613 E106.56535
M204 S3000
M205 X10 Y10
G0 F3000 X139.479 Y103.563
M204 S1800
M205 X8 Y8
G1 F1500 X139.479 Y120.362 E107.34758
G1 X156.277 Y120.362 E108.12977
G1 X156.277 Y103.563 E108.912
G1 X139.479 Y103.563 E109.69419
M204 S3000
M205 X10 Y10
G0 F3000 X120.429 Y103.563
M204 S1800
M205 X8 Y8
G1 F1500 X120.429 Y120.362 E110.47642
G1 X137.227 Y120.362 E111.2586
G1 X137.227 Y103.563 E112.04084
G1 X120.429 Y103.563 E112.82302
M204 S3000
M205 X10 Y10
G0 F3000 X120.429 Y84.513
M204 S1800
M205 X8 Y8
G1 F1500 X120.429 Y101.312 E113.60525
G1 X137.227 Y101.312 E114.38744
G1 X137.227 Y84.513 E115.16967
G1 X120.429 Y84.513 E115.95185
M204 S3000
M205 X10 Y10
G0 F3000 X120.429 Y65.464
M204 S1800
M205 X8 Y8
G1 F1500 X120.429 Y82.263 E116.73409
G1 X137.227 Y82.263 E117.51627
G1 X137.227 Y65.464 E118.2985
G1 X120.429 Y65.464 E119.08069
M204 S3000
M205 X10 Y10
G0 F3000 X139.479 Y65.464
M204 S1800
M205 X8 Y8
G1 F1500 X139.479 Y82.263 E119.86292
G1 X156.277 Y82.263 E120.64511
G1 X156.277 Y65.464 E121.42734
G1 X139.479 Y65.464 E122.20952
M204 S3000
M205 X10 Y10
G0 F3000 X139.479 Y84.513
M204 S1800
M205 X8 Y8
G1 F1500 X139.479 Y101.312 E122.99175
G1 X156.277 Y101.312 E123.77394
G1 X156.277 Y84.513 E124.55617
G1 X139.479 Y84.513 E125.33836
M204 S3000
M205 X10 Y10
G0 F3000 X101.379 Y84.513
M204 S1800
M205 X8 Y8
G1 F1500 X101.379 Y101.312 E126.12059
G1 X118.177 Y101.312 E126.90277
G1 X118.177 Y84.513 E127.68501
G1 X101.379 Y84.513 E128.46719
M204 S3000
M205 X10 Y10
G0 F3000 X101.379 Y65.464
M204 S1800
M205 X8 Y8
G1 F1500 X101.379 Y82.263 E129.24942
G1 X118.177 Y82.263 E130.03161
G1 X118.177 Y65.464 E130.81384
G1 X101.379 Y65.464 E131.59603
M204 S3000
M205 X10 Y10
G0 F3000 X39.465 Y103.563
M204 S1800
M205 X8 Y8
G1 F1500 X39.465 Y120.362 E132.37826
G1 X56.265 Y120.362 E133.16054
G1 X56.265 Y103.563 E133.94277
G1 X39.465 Y103.563 E134.72505
M204 S3000
M205 X10 Y10
G0 F3000 X39.465 Y122.613
M204 S1800
M205 X8 Y8
G1 F1500 X39.465 Y139.413 E135.50732
G1 X56.265 Y139.413 E136.2896
G1 X56.265 Y122.613 E137.07188
G1 X39.465 Y122.613 E137.85416
M204 S3000
M205 X10 Y10
G0 F3000 X39.465 Y146.788
M204 S1800
M205 X8 Y8
G1 F1500 X39.465 Y163.313 E138.62363
G1 X34.947 Y163.313 E138.83401
G1 X34.947 Y46.687 E144.2646
G1 X39.465 Y46.687 E144.47498
G1 X39.465 Y63.213 E145.2445
G1 X56.265 Y63.213 E146.02678
G1 X56.265 Y46.687 E146.7963
G1 X58.515 Y46.687 E146.90107
G1 X58.515 Y63.213 E147.67059
G1 X75.315 Y63.213 E148.45287
G1 X75.315 Y46.687 E149.22239
G1 X77.565 Y46.687 E149.32716
G1 X77.565 Y63.213 E150.09668
G1 X94.365 Y63.213 E150.87895
G1 X94.365 Y46.687 E151.64847
G1 X102.628 Y46.687 E152.03323
G1 X102.628 Y52.914 E152.32319
G1 X101.802 Y52.914 E152.36165
G1 X101.802 Y58.513 E152.62236
G1 X102.628 Y58.513 E152.66083
G1 X102.628 Y61.742 E152.81118
G1 X110.904 Y61.742 E153.19655
G1 X110.904 Y63.213 E153.26504
G1 X127.702 Y63.213 E154.04723
G1 X127.702 Y61.742 E154.11572
G1 X135.979 Y61.742 E154.50114
G1 X135.979 Y58.513 E154.65149
G1 X136.804 Y58.513 E154.68991
G1 X136.804 Y52.914 E154.95062
G1 X135.979 Y52.914 E154.98904
G1 X135.979 Y46.687 E155.27899
G1 X139.479 Y46.687 E155.44197
G1 X139.479 Y63.213 E156.21149
G1 X156.277 Y63.213 E156.99367
G1 X156.277 Y46.687 E157.76319
G1 X165.027 Y46.687 E158.17063
G1 X170.628 Y46.687 E158.43143
G1 X175.053 Y46.687 E158.63748
G1 X175.053 Y55.938 E159.06824
G1 X173.86 Y55.938 E159.1238
G1 X173.86 Y47.663 E159.50911
G1 X170.628 Y47.663 E159.65961
G1 X170.628 Y46.838 E159.69803
G1 X165.027 Y46.838 E159.76835
G1 X165.027 Y47.663 E159.80677
G1 X158.758 Y47.663 E160.09868
G1 X158.758 Y49.388 E160.179
G1 X157.559 Y49.388 E160.23483
G1 X157.559 Y55.487 E160.51882
G1 X158.529 Y55.487 E160.56399
G1 X158.758 Y55.487 E160.57466
G1 X158.758 Y55.938 E160.59488
G1 X158.529 Y55.938 E160.60192
G1 X158.529 Y72.737 E161.38415
G1 X158.758 Y72.737 E161.39481
G1 X158.758 Y73.188 E161.41503
G1 X158.529 Y73.188 E161.42208
G1 X157.559 Y73.188 E161.46725
G1 X157.559 Y79.287 E161.75124
G1 X158.758 Y79.287 E161.80707
G1 X158.758 Y81.013 E161.88744
G1 X165.027 Y81.013 E162.17935
G1 X165.027 Y81.839 E162.21781
G1 X170.628 Y81.839 E162.47862
G1 X170.628 Y81.013 E162.51708
G1 X173.86 Y81.013 E162.66758
G1 X173.86 Y72.737 E163.05294
G1 X175.053 Y72.737 E163.10849
G1 X175.053 Y94.039 E164.1004
G1 X173.86 Y94.039 E164.15596
G1 X173.86 Y85.763 E164.54132
G1 X170.628 Y85.763 E164.69182
G1 X170.628 Y84.938 E164.73023
G1 X165.027 Y84.938 E164.99104
G1 X165.027 Y85.763 E165.02945
G1 X158.758 Y85.763 E165.32136
G1 X158.758 Y87.488 E165.40169
G1 X157.559 Y87.488 E165.45752
G1 X157.559 Y93.588 E165.74156
G1 X158.529 Y93.588 E165.78673
G1 X158.758 Y93.588 E165.79739
G1 X158.758 Y94.039 E165.81761
G1 X158.529 Y94.039 E165.82465
G1 X158.529 Y110.838 E166.60689
G1 X158.758 Y110.838 E166.61755
G1 X158.758 Y111.289 E166.63777
G1 X158.529 Y111.289 E166.64481
G1 X157.559 Y111.289 E166.68998
G1 X157.559 Y117.388 E166.97398
G1 X158.758 Y117.388 E167.02981
G1 X158.758 Y119.113 E167.11013
G1 X165.027 Y119.113 E167.40204
G1 X165.027 Y119.938 E167.44046
G1 X170.628 Y119.938 E167.70126
G1 X170.628 Y119.113 E167.73968
G1 X173.86 Y119.113 E167.89017
G1 X173.86 Y110.838 E168.27549
G1 X175.053 Y110.838 E168.33104
G1 X175.053 Y122.613 E168.87934
G1 X158.529 Y122.613 E169.64876
G1 X158.529 Y139.413 E170.43104
G1 X175.053 Y139.413 E171.20047
G1 X175.053 Y163.313 E172.31335
G1 X94.365 Y163.313 E176.07052
G1 X94.365 Y146.788 E176.84
G1 X77.565 Y146.788 E177.62227
G1 X77.565 Y163.313 E178.39175
G1 X75.315 Y163.313 E178.49652
G1 X75.315 Y146.788 E179.26599
G1 X58.515 Y146.788 E180.04827
G1 X58.515 Y163.313 E180.81774
G1 X56.265 Y163.313 E180.92251
G1 X56.265 Y146.788 E181.69198
G1 X39.465 Y146.788 E182.47426
M204 S3000
M205 X10 Y10
G0 F3000 X40.025 Y147.348
M204 S1800
M205 X8 Y8
G1 F1500 X40.025 Y163.027 E183.20434
G1 X55.705 Y163.027 E183.93447
G1 X55.705 Y147.348 E184.66455
G1 X40.025 Y147.348 E185.39468
M204 S3000
M205 X10 Y10
G0 F3000 X39.955 Y147.278
G0 X59.005 Y147.278
G0 X59.075 Y147.348
M204 S1800
M205 X8 Y8
G1 F1500 X59.075 Y163.027 E186.12476
G1 X74.755 Y163.027 E186.85488
G1 X74.755 Y147.348 E187.58496
G1 X59.075 Y147.348 E188.31509
M204 S3000
M205 X10 Y10
G0 F3000 X59.005 Y147.278
G0 X78.055 Y147.278
G0 X78.125 Y147.348
M204 S1800
M205 X8 Y8
G1 F1500 X78.125 Y163.027 E189.04517
G1 X93.805 Y163.027 E189.77529
G1 X93.805 Y147.348 E190.50537
G1 X78.125 Y147.348 E191.2355
M204 S3000
M205 X10 Y10
G0 F3000 X78.055 Y147.278
G0 X78.055 Y123.103
G0 X78.125 Y123.173
M204 S1800
M205 X8 Y8
G1 F1500 X78.125 Y138.853 E191.96563
G1 X93.805 Y138.853 E192.69575
G1 X93.805 Y123.173 E193.42588
G1 X78.125 Y123.173 E194.15601
M204 S3000
M205 X10 Y10
G0 F3000 X78.055 Y123.103
G0 X59.005 Y123.103
G0 X59.075 Y123.173
M204 S1800
M205 X8 Y8
G1 F1500 X59.075 Y138.853 E194.88613
G1 X74.755 Y138.853 E195.61626
G1 X74.755 Y123.173 E196.34639
G1 X59.075 Y123.173 E197.07651
M204 S3000
M205 X10 Y10
G0 F3000 X59.005 Y123.103
G0 X39.955 Y123.103
G0 X40.025 Y123.173
M204 S1800
M205 X8 Y8
G1 F1500 X40.025 Y138.853 E197.80664
G1 X55.705 Y138.853 E198.53677
G1 X55.705 Y123.173 E199.26689
G1 X40.025 Y123.173 E199.99702
M204 S3000
M205 X10 Y10
G0 F3000 X39.955 Y123.103
G0 X39.955 Y104.053
G0 X40.025 Y104.123
M204 S1800
M205 X8 Y8
G1 F1500 X40.025 Y119.802 E200.7271
G1 X55.705 Y119.802 E201.45723
G1 X55.705 Y104.123 E202.18731
G1 X40.025 Y104.123 E202.91743
M204 S3000
M205 X10 Y10
G0 F3000 X39.955 Y104.053
G0 X59.005 Y104.053
G0 X59.075 Y104.123
M204 S1800
M205 X8 Y8
